tipitek/img/limits-icon.svg

<svg width="44" height="44" viewBox="0 0 44 44" fill="none" xmlns="http://www.w3.org/2000/svg">
<path d="M6.60547 28.6006L22.35 12.8C21.2772 11.7761 20.4069 10.4906 18.8352 10.1605L20.9299 8.10876C20.9929 8.16781 21.1712 8.33017 21.3415 8.50059C23.2042 10.3631 25.0521 12.2404 26.9348 14.0828C27.7394 14.8718 28.6164 15.587 29.4746 16.3479C28.6968 17.4979 27.0166 17.6576 25.9291 16.5599C25.3189 15.9426 24.7517 15.2838 24.1938 14.6813L10.1215 28.7576L21.9772 40.6211L40.6638 21.9194L37.5259 18.8478L39.2383 17.1825L44.0002 21.9811L21.9959 43.9999L6.60547 28.6006Z" fill="#30CBFF"/>
<path d="M21.622 31.1785C22.7377 32.2708 23.6416 33.5254 25.2682 33.8891L23.1105 35.9207C20.2301 33.2946 17.6648 30.1788 14.5282 27.6655C15.5098 26.4578 17.0761 26.384 18.2025 27.5715C18.7537 28.1526 19.2847 28.7551 19.7661 29.2838L33.8572 15.182L22.0257 3.33993L3.3538 22.0242L6.4917 25.1105L4.6854 26.7208L0 22.0363C7.30568 14.7177 14.6878 7.33336 22.0176 0L37.3974 15.3927L21.622 31.1785Z" fill="#30CBFF"/>
</svg>

<svg width="44" height="44" fill="none" xmlns="http://www.w3.org/2000/svg"><path d="M6.605 28.6L22.35 12.8c-1.073-1.024-1.943-2.31-3.515-2.64L20.93 8.11c.063.059.241.221.412.392 1.862 1.862 3.71 3.74 5.593 5.582.804.789 1.681 1.504 2.54 2.265-.778 1.15-2.458 1.31-3.546.212-.61-.617-1.177-1.276-1.735-1.879L10.122 28.758 21.977 40.62 40.664 21.92l-3.138-3.071 1.712-1.665L44 21.98 21.996 44 6.606 28.6z" fill="#30CBFF"/><path d="M21.622 31.178c1.116 1.093 2.02 2.347 3.646 2.711l-2.158 2.032c-2.88-2.626-5.445-5.742-8.582-8.255.982-1.208 2.548-1.282 3.675-.095.55.582 1.082 1.184 1.563 1.713l14.091-14.102L22.026 3.34 3.354 22.024l3.138 3.086-1.807 1.61L0 22.037C7.306 14.718 14.688 7.333 22.018 0l15.38 15.393-15.776 15.785z" fill="#30CBFF"/></svg>
